RASD/Images/SequenceDiagrams/See_Past_Reports.svg

<svg version="1.1" xmlns="http://www.w3.org/2000/svg" xmlns:xlink="http://www.w3.org/1999/xlink" width="401" height="476"><defs/><g><g/><g/><g/><g/><g/><g><rect fill="white" stroke="none" x="0" y="0" width="401" height="476"/></g><g><text fill="black" stroke="none" font-family="sans-serif" font-size="16.5pt" font-style="normal" font-weight="normal" text-decoration="normal" x="119.9468033402018" y="24.50280495" text-anchor="start" dominant-baseline="alphabetic">See past reports</text></g><g/><g><path fill="none" stroke="black" paint-order="fill stroke markers" d=" M 81.67601649999999 128.80307802049998 L 81.67601649999999 476.74290831049996" stroke-miterlimit="10" stroke-width="1.3612669416666667" stroke-dasharray="12.565541,5.445067766666667"/><path fill="none" stroke="black" paint-order="fill stroke markers" d=" M 319.5717619333333 128.80307802049998 L 319.5717619333333 476.74290831049996" stroke-miterlimit="10" stroke-width="1.3612669416666667" stroke-dasharray="12.565541,5.445067766666667"/></g><g><g><path fill="white" stroke="black" paint-order="fill stroke markers" d=" M 90.987082381 59.70516806150002 A 9.311065881 9.311065881 0 1 1 90.98707772546743 59.69585699717086 M 81.67601649999999 69.01623394250002 L 81.67601649999999 88.94518196850002 M 69.914670124 76.20372339450002 L 93.43736287599998 76.20372339450002 M 81.67601649999999 88.94518196850002 L 69.914670124 107.56731373050002 M 81.67601649999999 88.94518196850002 L 93.43736287599998 107.56731373050002" stroke-miterlimit="10" stroke-width="2.7769845610000004" stroke-dasharray=""/></g><g><g/><text fill="black" stroke="none" font-family="sans-serif" font-size="11pt" font-style="normal" font-weight="normal" text-decoration="normal" x="29.67601649999999" y="123.90251703050001" text-anchor="start" dominant-baseline="alphabetic">Registered user</text></g><path fill="none" stroke="none"/><g><path fill="white" stroke="black" paint-order="fill stroke markers" d=" M 263.34806635283326 84.69802911050002 L 375.7954575138333 84.69802911050002 L 375.7954575138333 128.8030780205 L 263.34806635283326 128.8030780205 L 263.34806635283326 84.69802911050002 Z" stroke-miterlimit="10" stroke-width="2.613632528" stroke-dasharray=""/></g><g><g/><text fill="black" stroke="none" font-family="sans-serif" font-size="11pt" font-style="normal" font-weight="normal" text-decoration="normal" x="281.0717619333333" y="112.46787472049999" text-anchor="start" dominant-baseline="alphabetic">SafeStreets</text></g></g><g><path fill="white" stroke="black" paint-order="fill stroke markers" d=" M 73.50841485 136.97067967049998 L 89.84361814999998 136.97067967049998 L 89.84361814999998 460.40770501049997 L 73.50841485 460.40770501049997 L 73.50841485 136.97067967049998" stroke-miterlimit="10" stroke-width="1.3612669416666667" stroke-dasharray=""/><path fill="white" stroke="black" paint-order="fill stroke markers" d=" M 311.4041602833333 182.70924891049998 L 327.7393635833333 182.70924891049998 L 327.7393635833333 288.88807036049997 L 311.4041602833333 288.88807036049997 L 311.4041602833333 182.70924891049998" stroke-miterlimit="10" stroke-width="1.3612669416666667" stroke-dasharray=""/><path fill="white" stroke="black" paint-order="fill stroke markers" d=" M 311.4041602833333 332.99311927049996 L 327.7393635833333 332.99311927049996 L 327.7393635833333 395.06689181049995 L 311.4041602833333 395.06689181049995 L 311.4041602833333 332.99311927049996" stroke-miterlimit="10" stroke-width="1.3612669416666667" stroke-dasharray=""/><g><g><rect fill="white" stroke="none" x="109.17360872166661" y="161.4734846205" width="182.90056099" height="21.23576429"/></g><text fill="black" stroke="none" font-family="sans-serif" font-size="11pt" font-style="normal" font-weight="normal" text-decoration="normal" x="111.62388921666661" y="176.17516759049997" text-anchor="start" dominant-baseline="alphabetic">Clicks "Past reports" button</text></g><g><path fill="none" stroke="black" paint-order="fill stroke markers" d=" M 89.84361814999998 182.70924891049998 L 308.68162639999997 182.70924891049998" stroke-miterlimit="10" stroke-width="1.3612669416666667" stroke-dasharray=""/><g transform="translate(311.4041602833333,182.70924891049998) translate(-311.4041602833333,-182.70924891049998)"><path fill="black" stroke="none" paint-order="stroke fill markers" d=" M 297.7914908666666 175.90291420216664 L 311.4041602833333 182.70924891049998 L 297.7914908666666 189.51558361883332 Z"/></g></g><g><g><rect fill="white" stroke="none" x="129.17360872166662" y="251.31710277049996" width="142.90056099" height="21.23576429"/></g><g><rect fill="white" stroke="none" x="129.17360872166662" y="267.65230607049995" width="58.90056099" height="21.23576429"/></g><text fill="black" stroke="none" font-family="sans-serif" font-size="11pt" font-style="normal" font-weight="normal" text-decoration="normal" x="131.6238892166666" y="266.01878574049994" text-anchor="start" dominant-baseline="alphabetic">Prompts past reports</text><text fill="black" stroke="none" font-family="sans-serif" font-size="11pt" font-style="normal" font-weight="normal" text-decoration="normal" x="131.6238892166666" y="282.3539890404999" text-anchor="start" dominant-baseline="alphabetic">list page</text></g><g><path fill="none" stroke="black" paint-order="fill stroke markers" d=" M 311.4041602833333 288.88807036049997 L 92.56615203333331 288.88807036049997" stroke-miterlimit="10" stroke-width="1.3612669416666667" stroke-dasharray="6.53408132"/><g transform="translate(89.84361814999998,288.88807036049997) translate(-89.84361814999998,-288.88807036049997)"><path fill="black" stroke="none" paint-order="stroke fill markers" d=" M 103.45628756666665 282.0817356521666 L 89.84361814999998 288.88807036049997 L 103.45628756666665 295.6944050688333 Z"/></g></g><g><g><rect fill="white" stroke="none" x="128.17360872166662" y="357.49592422049994" width="144.90056099" height="21.23576429"/></g><g><rect fill="white" stroke="none" x="128.17360872166662" y="373.83112752049993" width="73.90056099" height="21.23576429"/></g><text fill="black" stroke="none" font-family="sans-serif" font-size="11pt" font-style="normal" font-weight="normal" text-decoration="normal" x="130.6238892166666" y="372.1976071904999" text-anchor="start" dominant-baseline="alphabetic">No past reports found</text><text fill="black" stroke="none" font-family="sans-serif" font-size="11pt" font-style="normal" font-weight="normal" text-decoration="normal" x="130.6238892166666" y="388.5328104904999" text-anchor="start" dominant-baseline="alphabetic">notification</text></g><g><path fill="none" stroke="black" paint-order="fill stroke markers" d=" M 311.4041602833333 395.06689181049995 L 92.56615203333331 395.06689181049995" stroke-miterlimit="10" stroke-width="1.3612669416666667" stroke-dasharray="6.53408132"/><g transform="translate(89.84361814999998,395.06689181049995) translate(-89.84361814999998,-395.06689181049995)"><path fill="black" stroke="none" paint-order="stroke fill markers" d=" M 103.45628756666665 388.2605571021666 L 89.84361814999998 395.06689181049995 L 103.45628756666665 401.8732265188333 Z"/></g></g><g><g/><path fill="none" stroke="black" paint-order="fill stroke markers" d=" M 16.33520329999999 207.21205386049996 L 376.7449734833333 207.21205386049996 L 376.7449734833333 419.56969676049994 L 16.33520329999999 419.56969676049994 L 16.33520329999999 207.21205386049996 Z" stroke-miterlimit="10" stroke-width="2.3336004714285714" stroke-dasharray=""/><path fill="white" stroke="black" paint-order="fill stroke markers" d=" M 16.33520329999999 207.21205386049996 L 16.33520329999999 226.81429782049997 L 63.00560989999999 226.81429782049997 L 72.80673187999999 217.01317584049997 L 72.80673187999999 207.21205386049996 L 16.33520329999999 207.21205386049996" stroke-miterlimit="10" stroke-width="2.3336004714285714" stroke-dasharray=""/><text fill="black" stroke="none" font-family="sans-serif" font-size="8.8pt" font-style="normal" font-weight="bold" text-decoration="normal" x="32.67040659999999" y="220.28021650049996" text-anchor="start" dominant-baseline="alphabetic">alt</text><text fill="black" stroke="none" font-family="sans-serif" font-size="8.8pt" font-style="normal" font-weight="bold" text-decoration="normal" x="89.14193517999999" y="220.28021650049996" text-anchor="start" dominant-baseline="alphabetic">[Presence of past reports]</text><g><path fill="none" stroke="black" paint-order="fill stroke markers" d=" M 16.33520329999999 313.39087531049995 L 376.7449734833333 313.39087531049995" stroke-miterlimit="10" stroke-width="2.3336004714285714" stroke-dasharray="4.083800825"/></g><g/><text fill="black" stroke="none" font-family="sans-serif" font-size="8.8pt" font-style="normal" font-weight="bold" text-decoration="normal" x="89.14193517999999" y="326.4590379505" text-anchor="start" dominant-baseline="alphabetic">[No past reports found]</text></g><g/></g><g/><g/></g></svg>

<?xml version="1.0" encoding="utf-8"?>
<!-- Generator: Adobe Illustrator 16.0.0, SVG Export Plug-In . SVG Version: 6.00 Build 0)  -->
<!DOCTYPE svg PUBLIC "-//W3C//DTD SVG 1.1//EN" "http://www.w3.org/Graphics/SVG/1.1/DTD/svg11.dtd">
<svg version="1.1" id="Layer_1" xmlns="http://www.w3.org/2000/svg" xmlns:xlink="http://www.w3.org/1999/xlink" x="0px" y="0px"
	 width="401px" height="476px" viewBox="0 0 401 476" enable-background="new 0 0 401 476" xml:space="preserve">
<g>
	<rect fill="#FFFFFF" width="401" height="476"/>
</g>
<g>
	<path fill="none" stroke="#000000" stroke-width="1.3613" stroke-miterlimit="10" stroke-dasharray="12.5655,5.4451" d="
		M81.676,128.803v347.94"/>
	<path fill="none" stroke="#000000" stroke-width="1.3613" stroke-miterlimit="10" stroke-dasharray="12.5655,5.4451" d="
		M319.571,128.803v347.94"/>
</g>
<g>
	<g>
		<path fill="#FFFFFF" stroke="#000000" stroke-width="2.777" stroke-miterlimit="10" d="M90.987,59.705
			c0.001,5.143-4.166,9.313-9.308,9.314c-5.143,0.002-9.313-4.166-9.314-9.308c-0.001-5.142,4.166-9.312,9.308-9.314
			c5.139-0.001,9.308,4.16,9.314,9.299 M81.676,69.016v19.929 M69.915,76.204h23.523 M81.676,88.945l-11.761,18.622 M81.676,88.945
			l11.762,18.622"/>
	</g>
	<g>
		<text transform="matrix(1 0 0 1 29.6758 123.9023)" font-family="'ArialMT'" font-size="11">Registered user</text>
	</g>
	<path d="M0,0"/>
	<g>
		<path fill="#FFFFFF" stroke="#000000" stroke-width="2.6136" stroke-miterlimit="10" d="M263.348,84.698h112.448v44.105H263.348
			V84.698z"/>
	</g>
	<g>
		<text transform="matrix(1 0 0 1 281.0723 112.4678)" font-family="'ArialMT'" font-size="11">SafeStreets</text>
	</g>
</g>
<g>
	<path fill="#FFFFFF" stroke="#000000" stroke-width="1.3613" stroke-miterlimit="10" d="M73.508,136.971h16.335v323.437H73.508
		V136.971"/>
	<path fill="#FFFFFF" stroke="#000000" stroke-width="1.3613" stroke-miterlimit="10" d="M311.404,182.709h16.335v106.18h-16.335
		V182.709"/>
	<path fill="#FFFFFF" stroke="#000000" stroke-width="1.3613" stroke-miterlimit="10" d="M311.404,332.993h16.335v62.073h-16.335
		V332.993"/>
	<g>
		<g>
			<rect x="109.174" y="161.474" fill="#FFFFFF" width="182.9" height="21.235"/>
		</g>
		<text transform="matrix(1 0 0 1 111.624 176.1748)" font-family="'ArialMT'" font-size="11">Clicks &quot;Past reports&quot; button</text>
	</g>
	<g>
		<path fill="none" stroke="#000000" stroke-width="1.3613" stroke-miterlimit="10" d="M89.844,182.709h218.838"/>
		<g transform="translate(311.4041602833333,182.70924891049998) translate(-311.4041602833333,-182.70924891049998)">
			<path d="M297.791,175.903l13.613,6.806l-13.613,6.807V175.903z"/>
		</g>
	</g>
	<g>
		<g>
			<rect x="129.174" y="251.317" fill="#FFFFFF" width="142.9" height="21.235"/>
		</g>
		<g>
			<rect x="129.174" y="267.652" fill="#FFFFFF" width="58.9" height="21.236"/>
		</g>
		<text transform="matrix(1 0 0 1 131.624 266.0186)" font-family="'ArialMT'" font-size="11">Prompts past reports</text>
		<text transform="matrix(1 0 0 1 131.624 282.3545)" font-family="'ArialMT'" font-size="11">list page</text>
	</g>
	<g>
		<path fill="none" stroke="#000000" stroke-width="1.3613" stroke-miterlimit="10" stroke-dasharray="6.5341" d="M311.404,288.889
			H92.566"/>
		<g transform="translate(89.84361814999998,288.88807036049997) translate(-89.84361814999998,-288.88807036049997)">
			<path d="M103.456,282.082l-13.612,6.807l13.612,6.806V282.082z"/>
		</g>
	</g>
	<g>
		<g>
			<rect x="128.174" y="357.496" fill="#FFFFFF" width="144.9" height="21.235"/>
		</g>
		<g>
			<rect x="128.174" y="373.831" fill="#FFFFFF" width="73.9" height="21.235"/>
		</g>
		<text transform="matrix(1 0 0 1 130.624 372.1973)" font-family="'ArialMT'" font-size="11">No past reports found</text>
		<text transform="matrix(1 0 0 1 130.624 388.5332)" font-family="'ArialMT'" font-size="11">notification</text>
	</g>
	<g>
		<path fill="none" stroke="#000000" stroke-width="1.3613" stroke-miterlimit="10" stroke-dasharray="6.5341" d="M311.404,395.066
			H92.566"/>
		<g transform="translate(89.84361814999998,395.06689181049995) translate(-89.84361814999998,-395.06689181049995)">
			<path d="M103.456,388.261l-13.612,6.806l13.612,6.807V388.261z"/>
		</g>
	</g>
	<g>
		<path fill="none" stroke="#000000" stroke-width="2.3336" stroke-miterlimit="10" d="M16.335,207.212h360.41V419.57H16.335
			V207.212z"/>
		<path fill="#FFFFFF" stroke="#000000" stroke-width="2.3336" stroke-miterlimit="10" d="M16.335,207.212v19.603h46.671
			l9.801-9.801v-9.801H16.335"/>
		<text transform="matrix(1 0 0 1 32.6704 220.2803)" font-family="'Arial-BoldMT'" font-size="8.8">alt</text>
		<text transform="matrix(1 0 0 1 89.1421 220.2803)" font-family="'Arial-BoldMT'" font-size="8.8">[Presence of past reports]</text>
		<g>
			<path fill="none" stroke="#000000" stroke-width="2.3336" stroke-miterlimit="10" stroke-dasharray="4.0838" d="M16.335,313.391
				h360.41"/>
		</g>
		<text transform="matrix(1 0 0 1 89.1421 326.459)" font-family="'Arial-BoldMT'" font-size="8.8">[No past reports found]</text>
	</g>
</g>
</svg>
